Papirus-Dark/symbolic/apps/tauonmb-symbolic.svg

<svg xmlns="http://www.w3.org/2000/svg" height="16" width="16" version="1.1">
 <path style="fill:#dfdfdf" d="m8 0a8 8 0 0 0 -8 8 8 8 0 0 0 8 8 8 8 0 0 0 8 -8 8 8 0 0 0 -8 -8zm0 2a6 6 0 0 1 6 6 6 6 0 0 1 -6 6 6 6 0 0 1 -6 -6 6 6 0 0 1 6 -6z"/>
 <circle cx="8" style="fill:#dfdfdf" r="2" cy="8"/>
 <path style="fill:#dfdfdf" d="m6.1445312 3.3613281a5 5 0 0 0 -3.1445312 4.6386719h2a3 3 0 0 1 1.8867188 -2.7851562l-0.7421876-1.8535157zm4.8554688 4.6386719a3 3 0 0 1 -1.8867188 2.785156l0.7421876 1.853516a5 5 0 0 0 3.1445312 -4.638672h-2z"/>
</svg>

<svg xmlns="http://www.w3.org/2000/svg" width="16" height="16" version="1.1">
 <path style="fill:#dfdfdf" d="M 6.1445,3.3613 A 5,5 0 0 0 3,8 H 5 A 3,3 0 0 1 6.8867,5.2148 Z M 11,8 A 3,3 0 0 1 9.1133,10.785 L 9.8555,12.639 A 5,5 0 0 0 13,8 Z M 10,8 A 2,2 0 0 1 8,10 2,2 0 0 1 6,8 2,2 0 0 1 8,6 2,2 0 0 1 10,8 Z M 8,0 A 8,8 0 0 0 0,8 8,8 0 0 0 8,16 8,8 0 0 0 16,8 8,8 0 0 0 8,0 Z M 8,2 A 6,6 0 0 1 14,8 6,6 0 0 1 8,14 6,6 0 0 1 2,8 6,6 0 0 1 8,2 Z"/>
</svg>
